build/category/AdministratorATOutline.svg

<svg xmlns="http://www.w3.org/2000/svg" fill="none" viewBox="0 0 24 24" focusable="false"><path d="M0 0H24V24H0z"/><path fill="#74767B" fill-rule="evenodd" d="M20 11.4233C20 11.846 19.5577 12.1289 19.1529 12.0072C18.894 11.9294 18.7 11.6979 18.7 11.4276L18.7 7C18.7 6.06112 17.9389 5.3 17 5.3L7 5.3C6.06112 5.3 5.3 6.06112 5.3 7L5.3 17C5.3 17.9389 6.06112 18.7 7 18.7L11.4276 18.7C11.6979 18.7 11.9294 18.894 12.0072 19.1529C12.1289 19.5577 11.846 20 11.4233 20L7 20C5.34314 20 4 18.6569 4 17L4 7C4 5.34315 5.34314 4 7 4L17 4C18.6569 4 20 5.34315 20 7L20 11.4233ZM16.0375 13.7656C16.1017 13.3267 16.4971 13 16.9639 13L17.9726 13C18.4338 13 18.8262 13.3191 18.8969 13.7516C18.9883 14.3109 19.6165 14.6467 20.1767 14.4308C20.6093 14.2642 21.1051 14.4257 21.3386 14.8094L21.8429 15.6384C22.0735 16.0174 21.9785 16.4994 21.6192 16.7738C21.1545 17.1286 21.1621 17.8128 21.6392 18.1653C22.0076 18.4374 22.1081 18.9257 21.8746 19.3094L21.3703 20.1384C21.1397 20.5174 20.6524 20.6804 20.2223 20.5222C19.6375 20.3071 18.993 20.6603 18.8969 21.2484C18.8262 21.681 18.4338 22 17.9726 22L16.9639 22C16.4971 22 16.1017 21.6733 16.0375 21.2344C15.9544 20.6661 15.3338 20.3177 14.7777 20.5222C14.3476 20.6804 13.8603 20.5174 13.6297 20.1384L13.1254 19.3094C12.8919 18.9257 12.9924 18.4374 13.3608 18.1653C13.8379 17.8128 13.8455 17.1286 13.3808 16.7738C13.0215 16.4994 12.9265 16.0174 13.1571 15.6384L13.6614 14.8094C13.7085 14.732 13.7663 14.6636 13.8322 14.6051L9.27316 14.6051L8.21817 16.7308C8.05858 17.0524 7.66853 17.1837 7.34697 17.0241C7.02541 16.8645 6.89411 16.4745 7.0537 16.1529L11.4292 7.33683C11.5445 7.10445 11.7802 6.97137 12.0234 6.97569C12.2666 6.97139 12.5023 7.10441 12.6176 7.33677L15.945 14.0411C15.9909 13.9579 16.0229 13.8654 16.0375 13.7656ZM9.91836 13.3051L12.0234 9.06373L14.1284 13.3051L9.91836 13.3051ZM17.1645 14.5127C17.219 14.3888 17.3366 14.3 17.4719 14.3C17.6059 14.3 17.7227 14.3871 17.7777 14.5093C18.2013 15.4499 19.245 15.9291 20.2209 15.7606C20.3137 15.7445 20.4091 15.7829 20.4581 15.8634C20.5081 15.9456 20.4966 16.0504 20.4369 16.1259C19.8078 16.9203 19.8282 18.0475 20.4635 18.8272C20.5245 18.902 20.5368 19.0073 20.4866 19.0898C20.4384 19.1689 20.3449 19.2071 20.2535 19.192C19.2504 19.0264 18.1959 19.5331 17.7733 20.4964C17.7211 20.6154 17.6078 20.7 17.4779 20.7L17.4653 20.7C17.3342 20.7 17.2203 20.6139 17.1685 20.4935C16.762 19.5483 15.733 19.0359 14.7468 19.1931C14.6553 19.2077 14.5619 19.1694 14.5137 19.0903C14.4634 19.0075 14.4756 18.9019 14.5368 18.8268C15.1717 18.0472 15.1921 16.9204 14.5634 16.1262C14.5035 16.0505 14.492 15.9454 14.5421 15.863C14.5911 15.7826 14.6864 15.7441 14.7793 15.7598C15.7412 15.9219 16.7575 15.4384 17.1645 14.5127ZM19 17.5C19 18.3284 18.3284 19 17.5 19C16.6716 19 16 18.3284 16 17.5C16 16.6716 16.6716 16 17.5 16C18.3284 16 19 16.6716 19 17.5Z"/></svg>

<svg xmlns="http://www.w3.org/2000/svg" fill="none" viewBox="0 0 24 24" focusable="false"><path fill="#74767B" fill-rule="evenodd" d="M20 11.42c0 .42-.45.7-.85.58a.62.62 0 0 1-.45-.58V7c0-.94-.77-1.7-1.7-1.7H7c-.94 0-1.7.76-1.7 1.7v10c0 .93.76 1.7 1.7 1.7h4.42c.27 0 .5.19.58.45.12.4-.16.85-.58.85H7c-1.66 0-3-1.35-3-3V7c0-1.66 1.34-3 3-3h10c1.65 0 3 1.34 3 3zm-3.97 2.34c.07-.44.46-.76.93-.76h1.01c.46 0 .85.31.92.75.09.56.72.89 1.28.68.43-.17.93-.01 1.16.37l.51.83c.23.38.13.86-.23 1.14a.867.867 0 0 0 .02 1.39c.37.27.47.76.24 1.14l-.5.83c-.24.38-.72.55-1.15.39-.59-.22-1.23.14-1.33.72-.07.44-.46.76-.92.76h-1.01a.93.93 0 0 1-.93-.77c-.08-.57-.7-.92-1.26-.71a.966.966 0 0 1-1.15-.39l-.5-.83a.856.856 0 0 1 .24-1.14c.47-.35.48-1.04.02-1.39-.36-.28-.46-.76-.23-1.14l.51-.83c.04-.07.1-.14.17-.2H9.27l-1.06 2.13a.649.649 0 0 1-1.16-.58l4.37-8.82c.12-.23.36-.36.6-.36s.48.13.59.36l3.33 6.71c.05-.09.08-.18.09-.28m-6.12-.46 2.11-4.24 2.1 4.24zm7.25 1.21c.05-.13.17-.21.31-.21.13 0 .25.08.3.2.43.94 1.47 1.42 2.45 1.26.09-.02.18.02.23.1s.04.19-.02.26c-.63.8-.61 1.92.03 2.7.06.08.07.18.02.26s-.14.12-.23.11c-1-.17-2.06.34-2.48 1.3-.05.12-.17.21-.3.21h-.01c-.13 0-.24-.09-.3-.21-.4-.95-1.43-1.46-2.42-1.3a.25.25 0 0 1-.23-.1.24.24 0 0 1 .02-.27c.64-.78.66-1.9.03-2.7a.23.23 0 0 1-.02-.26c.05-.08.14-.12.23-.11.97.17 1.98-.32 2.39-1.24M19 17.5c0 .82-.68 1.5-1.5 1.5-.83 0-1.5-.68-1.5-1.5 0-.83.67-1.5 1.5-1.5.82 0 1.5.67 1.5 1.5"/></svg>
